!!!OTL: Der verkleidete Markgrafensohn Es wurb, es wurb eins Koenigsson
!!!ARE: Europa, Mitteleuropa, Deutschland
!!!YOR: 1, S. 49
!!    1556 gedruckt in Nuernberg
!!!SCT: Q0006
!!!YEM: Copyright 1995, estate of Helmut Schaffrath.
**kern
*ICvox
*Ivox
!! Irregular meter.
*MX
*k[b-]
*F:
{4f
=1
4f
4g
4a
4.cc
=2
8b-
8a
8b-
4g
4g
=3
2f
4r}
!*M3/4
=4
{4f
4cc
4cc
=5
2dd
4cc
2cc
4b-
=6
2cc}
!*M2/4
=7
{2cc
4cc
4cc
=8
4.a
8cc
4.b-
8a
=9
2g
4r}
!*M3/4
=10
{4cc
=11
4b-
4g
4a
4f
=12
4.a
8b-
4cc
4.b-
=13
8a
8g
8f
2g
=14
1f}
==
!!!AGN: Ballade, Braut - Werbung
!! Kleinere Melodievarianten aus anderen Quellen abgedruckt.
!!!ONB: ESAC (Essen Associative Code) Database: BALLADE
!!!AMT: irregular
!!!AIN: vox
!!!EED: Helmut Schaffrath
!!!EEV: 1.0
*-
